dist/svg/cloud-user.svg

<!-- Generated by Trend Micro Style Portal -->
<svg version="1.1" xmlns="http://www.w3.org/2000/svg" width="16" height="16" viewBox="0 0 16 16">
  <title>cloud-user</title>
  <path fill="rgb(34,34,34)" d="M14 12h-2.050c-0.234-1.148-1.235-2-2.435-2-0.395 0-0.769 0.092-1.101 0.257l0.014-0.006c-0.074-0.091-0.149-0.172-0.228-0.25l-0-0c-0.54-0.614-1.328-1-2.206-1s-1.666 0.386-2.203 0.997l-0.003 0.003q-0.091 0.102-0.173 0.211c-0.193 0.253-0.35 0.547-0.455 0.865l-0.006 0.021c-0.195-0.059-0.419-0.094-0.652-0.097l-0.002-0c-1.381 0-2.5 1.119-2.5 2.5s1.119 2.5 2.5 2.5v0h11.5c1.105 0 2-0.895 2-2s-0.895-2-2-2v0zM14 15h-11.5c-0.828 0-1.5-0.672-1.5-1.5s0.672-1.5 1.5-1.5v0c0.141 0.004 0.275 0.026 0.402 0.065l-0.011-0.003 0.925 0.252 0.29-0.914c0.049-0.153 0.109-0.286 0.181-0.41l-0.005 0.010c0.347-0.602 0.987-1 1.72-1 0.664 0 1.252 0.327 1.611 0.83l0.004 0.006 0.489 0.677 0.753-0.36c0.187-0.094 0.407-0.15 0.64-0.152h0.001c0.721 0.001 1.324 0.511 1.468 1.189l0.002 0.010 0.163 0.801h2.868c0.552 0 1 0.448 1 1s-0.448 1-1 1v0zM2.5 10h0.049c0.699-1.204 1.981-2 3.45-2 1.060 0 2.023 0.415 2.735 1.091l-0.002-0.002c0.23-0.056 0.494-0.089 0.765-0.089 0.001 0 0.002 0 0.003 0h-0c1.387 0.005 2.584 0.811 3.153 1.979l0.009 0.021h1.338c0.552-0 1-0.448 1-1v-9c-0-0.552-0.448-1-1-1h-12c-0.552 0-1 0.448-1 1v9c0 0.112 0.019 0.221 0.053 0.321l-0.002-0.007c0.424-0.199 0.921-0.314 1.445-0.314 0.001 0 0.003 0 0.004 0h-0zM9 2h4v1h-4zM9 4h4v1h-4zM9 6h4v1h-4zM3.62 5.331c0.355-0.355 0.8-0.62 1.299-0.756l0.021-0.005 0.021-0.005v-0.191c-0.422-0.206-0.707-0.632-0.707-1.125 0-0.69 0.559-1.249 1.249-1.249s1.249 0.559 1.249 1.249c0 0.49-0.282 0.914-0.693 1.119l-0.015 0.007v0.191c0.528 0.139 0.981 0.406 1.34 0.766l0 0c0.391 0.416 1.249 1.665-0.167 1.665h-3.43c-1.415 0-0.566-1.248-0.167-1.665z"></path>
</svg>

<svg width="16" height="16" viewBox="0 0 16 16" fill="rgb(34, 34, 34)" xmlns="http://www.w3.org/2000/svg"><title>cloud-user</title><path d="M14 12H11.95C11.716 10.852 10.715 10 9.515 10C9.12 10 8.746 10.092 8.414 10.257L8.428 10.251C8.354 10.16 8.279 10.079 8.2 10.001C7.66 9.387 6.872 9.001 5.994 9.001C5.116 9.001 4.328 9.387 3.791 9.998L3.788 10.001C3.72733 10.069 3.66967 10.1393 3.615 10.212C3.422 10.465 3.265 10.759 3.16 11.077L3.154 11.098C2.959 11.039 2.735 11.004 2.502 11.001H2.5C1.119 11.001 0 12.12 0 13.501C0 14.882 1.119 16.001 2.5 16.001H14C15.105 16.001 16 15.106 16 14.001C16 12.896 15.105 12.001 14 12.001V12ZM14 15H2.5C1.672 15 1 14.328 1 13.5C1 12.672 1.672 12 2.5 12C2.641 12.004 2.775 12.026 2.902 12.065L2.891 12.062L3.816 12.314L4.106 11.4C4.155 11.247 4.215 11.114 4.287 10.99L4.282 11C4.629 10.398 5.269 10 6.002 10C6.666 10 7.254 10.327 7.613 10.83L7.617 10.836L8.106 11.513L8.859 11.153C9.046 11.059 9.266 11.003 9.499 11.001H9.5C10.221 11.002 10.824 11.512 10.968 12.19L10.97 12.2L11.133 13.001H14.001C14.553 13.001 15.001 13.449 15.001 14.001C15.001 14.553 14.553 15.001 14.001 15.001L14 15ZM2.5 10H2.549C3.248 8.796 4.53 8 5.999 8C7.059 8 8.022 8.415 8.734 9.091L8.732 9.089C8.962 9.033 9.226 9 9.497 9C9.498 9 9.499 9 9.5 9C10.887 9.005 12.084 9.811 12.653 10.979L12.662 11H14C14.552 11 15 10.552 15 10V1C15 0.448 14.552 0 14 0H2C1.448 0 1 0.448 1 1V10C1 10.112 1.019 10.221 1.053 10.321L1.051 10.314C1.475 10.115 1.972 10 2.496 10C2.497 10 2.499 10 2.5 10ZM9 2H13V3H9V2ZM9 4H13V5H9V4ZM9 6H13V7H9V6ZM3.62 5.331C3.975 4.976 4.42 4.711 4.919 4.575L4.94 4.57L4.961 4.565V4.374C4.539 4.168 4.254 3.742 4.254 3.249C4.254 2.559 4.813 2 5.503 2C6.193 2 6.752 2.559 6.752 3.249C6.752 3.739 6.47 4.163 6.059 4.368L6.044 4.375V4.566C6.572 4.705 7.025 4.972 7.384 5.332C7.775 5.748 8.633 6.997 7.217 6.997H3.787C2.372 6.997 3.221 5.748 3.62 5.331Z" fill="rgb(34, 34, 34)" fill-opacity="1.00"/></svg>
